X:2631
T:Captain Pugwash
T:Trumpet Hornpipe, The
S:many many sessions
R:Hornpipe
O:England
O:Ireland
O:Scotland
M:4/4
K:G
D2|\
(3GGG G2 (3GGG Gd|BG Bd gd BG|\
(3DDD D2 (3DDD DA|FD FA DA FD|\
(3GGG G2 (3GGG Gd|BG Bd g2 gg|\
fa gf eg fe|d2d2 d2 ::\
(3def|\
(3ggg g2 (3ggg gf|ef gf ed cB|\
cd ed cB AG|FG AG FD EF|\
(3GGG G2 (3FFF F2|(3EEE E2(3_EEE E2|\
D2 fe dc BA|G2B2 G2:|


